X: 5870
T: Calon Lan
R: waltz
M: 3/4
K: Gminor
A8|B4 A2 F2|G4 D4|c8|A4 c4|d8|d2 e2 d2 B2|
c4 B2 A2|G8|D8|G4 A4|G2 F2 D2 C2|D8|F8|G8-|G8|

